src/lib/images/partners/vulkania.svg

<svg viewBox="0 0 596 154" fill="none" xmlns="http://www.w3.org/2000/svg">
<path d="M134.61 33.0901H155.8L176.58 87.2401L197.36 33.0901H218.54L184 115.52H169.18L134.61 33.0901Z" fill="white"/>
<path d="M233.94 88.64C233.94 98.73 236.64 102.64 244.03 102.64C251.42 102.64 254.12 98.74 254.12 88.64V64.26H271.81V92.94C271.81 110.12 263.22 117.02 244.03 117.02C224.84 117.02 216.26 110.12 216.26 92.94V64.26H233.94V88.64Z" fill="white"/>
<path d="M282.81 29.5901H300.49V115.52H282.81V29.5901Z" fill="white"/>
<path d="M346.66 88.7401L373.43 115.52H350.65L330.17 95.0001V115.48H312.48V29.5901H330.17V82.1501L348.06 64.2601H371.06L346.66 88.7401Z" fill="white"/>
<path d="M396.32 62.77C403.22 62.77 408.91 65.06 413.11 69.16V64.26H430.79V115.52H413.31V109.72H413.11C410.971 112.036 408.374 113.881 405.483 115.138C402.593 116.395 399.472 117.036 396.32 117.02C381.32 117.02 370.84 104.93 370.84 89.94C370.84 74.95 381.34 62.77 396.32 62.77ZM401.62 101.93C408.51 101.93 413.51 96.93 413.51 89.93C413.51 86.7633 412.252 83.7263 410.013 81.4872C407.774 79.248 404.737 77.99 401.57 77.99C398.403 77.99 395.366 79.248 393.127 81.4872C390.888 83.7263 389.63 86.7633 389.63 89.93C389.63 96.94 394.43 101.93 401.62 101.93Z" fill="white"/>
<path d="M442.79 64.26H460.48V69.66H460.68C464.68 65.66 469.77 62.77 475.37 62.77C484.76 62.77 497.85 67.46 497.85 81.77V115.54H480.16V86.54C480.16 81.45 476.67 76.54 470.97 76.54C465.67 76.54 460.48 81.44 460.48 86.54V115.54H442.79V64.26Z" fill="white"/>
<path d="M528.43 43.0801C528.43 45.1548 527.815 47.1829 526.662 48.908C525.51 50.6331 523.871 51.9776 521.955 52.7716C520.038 53.5655 517.929 53.7733 515.894 53.3685C513.859 52.9638 511.99 51.9647 510.523 50.4976C509.056 49.0306 508.057 47.1614 507.652 45.1266C507.247 43.0917 507.455 40.9825 508.249 39.0657C509.043 37.1489 510.387 35.5106 512.112 34.358C513.837 33.2053 515.865 32.5901 517.94 32.5901C520.722 32.5901 523.39 33.6953 525.358 35.6625C527.325 37.6298 528.43 40.298 528.43 43.0801ZM508.85 115.52H526.53V64.2601H508.85V115.52Z" fill="white"/>
<path d="M560.8 62.77C567.7 62.77 573.39 65.06 577.59 69.16V64.26H595.28V115.52H577.79V109.72H577.59C575.45 112.032 572.852 113.874 569.961 115.127C567.071 116.38 563.951 117.018 560.8 117C545.8 117 535.32 104.91 535.32 89.92C535.32 74.93 545.82 62.77 560.8 62.77ZM566.1 101.93C572.99 101.93 577.99 96.93 577.99 89.93C577.99 86.7633 576.732 83.7263 574.493 81.4872C572.254 79.248 569.217 77.99 566.05 77.99C562.884 77.99 559.847 79.248 557.607 81.4872C555.368 83.7263 554.11 86.7633 554.11 89.93C554.11 96.94 558.91 101.93 566.1 101.93V101.93Z" fill="white"/>
<path d="M100.44 73.9001L134.34 141.69H19.24L53.13 73.9001L68 90.2401L76.79 99.9101L85.59 90.2401L100.44 73.9001ZM103.32 53.0701L76.78 82.2401L50.25 53.0701L0 153.58H153.57L103.32 53.0701V53.0701Z" fill="url(#paint0_linear_47_547)"/>
<path d="M76.7898 26.59L85.2398 43.49L76.7798 52.79L68.3298 43.5L76.7898 26.59M76.7898 0L54.0498 45.47L76.7798 70.47L99.5198 45.47L76.7898 0Z" fill="#E74350"/>
<defs>
<linearGradient id="paint0_linear_47_547" x1="76.79" y1="153.58" x2="76.79" y2="53.0701" gradientUnits="userSpaceOnUse">
<stop stop-color="#50BCEC"/>
<stop offset="1" stop-color="#544797"/>
</linearGradient>
</defs>
</svg>

<svg fill="none" viewBox="0 0 596 154" xmlns="http://www.w3.org/2000/svg"><linearGradient id="a" gradientUnits="userSpaceOnUse" x1="76.79" x2="76.79" y1="153.58" y2="53.07"><stop offset="0" stop-color="#50bcec"/><stop offset="1" stop-color="#544797"/></linearGradient><path d="M134.61 33.09h21.19l20.78 54.15 20.78-54.15h21.18L184 115.52h-14.82zm99.33 55.55c0 10.09 2.7 14 10.09 14s10.09-3.9 10.09-14V64.26h17.69v28.68c0 17.18-8.59 24.08-27.78 24.08s-27.77-6.9-27.77-24.08V64.26h17.68zm48.87-59.05h17.68v85.93h-17.68zm63.85 59.15l26.77 26.78h-22.78L330.17 95v20.48h-17.69V29.59h17.69v52.56l17.89-17.89h23z" fill="#fff"/><path d="M396.32 62.77c6.9 0 12.59 2.29 16.79 6.39v-4.9h17.68v51.26h-17.48v-5.8h-.2a22.706 22.706 0 0 1-16.79 7.3c-15 0-25.48-12.09-25.48-27.08s10.5-27.17 25.48-27.17zm5.3 39.16c6.89 0 11.89-5 11.89-12a11.94 11.94 0 0 0-23.88 0c0 7.01 4.8 12 11.99 12zm41.17-37.67h17.69v5.4h.2c4-4 9.09-6.89 14.69-6.89 9.39 0 22.48 4.69 22.48 19v33.77h-17.69v-29c0-5.09-3.49-10-9.19-10-5.3 0-10.49 4.9-10.49 10v29h-17.69zm85.64-21.18a10.487 10.487 0 0 1-12.536 10.288 10.488 10.488 0 0 1-7.645-14.302 10.489 10.489 0 0 1 20.181 4.014zm-19.58 72.44h17.68V64.26h-17.68zm51.95-52.75c6.9 0 12.59 2.29 16.79 6.39v-4.9h17.69v51.26h-17.49v-5.8h-.2A22.693 22.693 0 0 1 560.8 117c-15 0-25.48-12.09-25.48-27.08s10.5-27.15 25.48-27.15zm5.3 39.16c6.89 0 11.89-5 11.89-12a11.94 11.94 0 0 0-23.88 0c0 7.01 4.8 12 11.99 12z" fill="#fff"/><path d="M100.44 73.9l33.9 67.79H19.24L53.13 73.9 68 90.24l8.79 9.67 8.8-9.67zm2.88-20.83L76.78 82.24 50.25 53.07 0 153.58h153.57z" fill="url(#a)"/><path d="M76.79 26.59l8.45 16.9-8.46 9.3-8.45-9.29zm0-26.59L54.05 45.47l22.73 25 22.74-25L76.79 0z" fill="#e74350"/></svg>
